src/assets/wed_icon/icon_24/heart_active_teal.svg

<svg width="24" height="24" viewBox="0 0 24 24" fill="none" xmlns="http://www.w3.org/2000/svg">
<path d="M5.69148 14.3506L11.9139 19.8943C11.963 19.938 12.0371 19.938 12.0862 19.8943L18.3086 14.3506C20.2201 12.6477 21.0027 10.0095 20.3291 7.53969C20.2072 7.09278 19.9679 6.68665 19.6359 6.36351L19.305 6.04133C17.2317 4.02294 13.7955 4.59549 12.4887 7.17708L12.0151 8.11273C12.0089 8.12506 11.9913 8.12506 11.985 8.11274L11.5114 7.17708C10.2046 4.5955 6.76839 4.02294 4.69513 6.04133L4.36419 6.36351C4.03226 6.68665 3.79292 7.09278 3.67102 7.53969C2.9974 10.0095 3.78003 12.6477 5.69148 14.3506Z" fill="#29867A"/>
<path fill-rule="evenodd" clip-rule="evenodd" d="M18.8564 6.50234C17.094 4.78658 14.173 5.27328 13.0621 7.4678L12.5885 8.40345L12.0149 8.11312L12.5885 8.40346C12.3443 8.88578 11.6555 8.88584 11.4113 8.40346L11.9848 8.11312L11.4113 8.40346L10.9376 7.46781C9.82678 5.27328 6.90578 4.78658 5.14337 6.50234L4.81243 6.82452C4.56276 7.06758 4.38273 7.37307 4.29104 7.70924C3.68162 9.94362 4.38966 12.3304 6.11892 13.871L11.9999 19.1104L17.8808 13.871C19.6101 12.3304 20.3181 9.94362 19.7087 7.70924C19.617 7.37307 19.437 7.06758 19.1873 6.82452L18.8564 6.50234ZM11.9999 6.72656C13.5617 3.89539 17.4127 3.30253 19.7532 5.58109L20.0842 5.90327C20.4984 6.30649 20.797 6.81325 20.9491 7.37092C21.6869 10.0761 20.8297 12.9658 18.7361 14.831L12.5136 20.3747C12.2208 20.6356 11.7789 20.6356 11.4861 20.3747L5.26366 14.831C3.17003 12.9658 2.31281 10.0761 3.05063 7.37092C3.20273 6.81325 3.50139 6.30649 3.91557 5.90327L4.24651 5.58109C6.58702 3.30253 10.438 3.89539 11.9999 6.72656Z" fill="#29867A"/>
</svg>

<svg xmlns="http://www.w3.org/2000/svg" width="24" height="24" fill="none"><path fill="#29867A" d="m5.691 14.35 6.223 5.544a.13.13 0 0 0 .172 0l6.223-5.543a6.75 6.75 0 0 0 2.02-6.811 2.6 2.6 0 0 0-.693-1.176l-.331-.323c-2.073-2.018-5.51-1.446-6.816 1.136l-.474.936a.017.017 0 0 1-.03 0l-.474-.936c-1.306-2.581-4.743-3.154-6.816-1.136l-.33.323c-.333.323-.572.729-.694 1.176a6.75 6.75 0 0 0 2.02 6.81"/><path fill="#29867A" fill-rule="evenodd" d="M18.856 6.502c-1.762-1.715-4.683-1.229-5.794.966l-.473.935-.574-.29.573.29a.66.66 0 0 1-1.177 0l.574-.29-.574.29-.473-.935c-1.111-2.195-4.032-2.681-5.795-.966l-.33.323c-.25.243-.43.548-.522.884a6.1 6.1 0 0 0 1.828 6.162l5.88 5.24 5.882-5.24a6.1 6.1 0 0 0 1.828-6.162 1.95 1.95 0 0 0-.522-.884zM12 6.727c1.562-2.832 5.413-3.424 7.753-1.146l.331.322c.414.403.713.91.865 1.468a7.39 7.39 0 0 1-2.213 7.46l-6.222 5.544a.77.77 0 0 1-1.028 0L5.264 14.83a7.39 7.39 0 0 1-2.213-7.46c.152-.558.45-1.065.865-1.468l.33-.322C6.588 3.303 10.439 3.895 12 6.727" clip-rule="evenodd"/></svg>
